X: 29888
T: O'Mahony's
R: hornpipe
M: 4/4
K: Gmajor
|:ge|dBAB GFGA|BGBd gfga|bage dBGB|BAAG A2ge|
dBAB GGGA|BGBd ggga|bage dBAB|G2GF G z:|
|:ga|bagb abga|bagb abga|b2ba gedB|BAAG A2ge|
dBAB GFGA|B/A/G Bd gfga|bage dBAB|G2GF G z:|
|:ge|dBBA ~G3A|(3BAG Bd ~g3a|bage dBGA|BAAG A2 ge|
dBBA ~G3A|(3BAG Bd ~g3a|bage dBAd|B2GF G2:|
|:ga|b2gb a2ga|bage a2ga|bage dBGA|BAAG A2ge|
dBBA ~G3A|(3BAG Bd ~g3a|bage dBAd|B2GF G2:|

